<?xml version="1.0" encoding="UTF-8"?>
<map version="1.10" tiledversion="1.11.2" orientation="orthogonal" renderorder="right-down" width="40" height="30" tilewidth="16" tileheight="16" infinite="0" nextlayerid="8" nextobjectid="28">
 <tileset firstgid="1" source="spr_tileset_sunnysideworld.tsx"/>
 <layer id="6" name="water" width="40" height="30">
  <data encoding="csv">
0,0,0,0,0,0,0,0,0,0,0,0,0,0,0,0,0,0,0,0,0,0,0,0,0,0,0,0,0,0,0,0,0,1164,1165,1166,1164,1165,1166,1167,
0,0,0,0,0,0,0,0,0,0,0,0,0,0,0,0,0,0,0,0,0,0,0,0,0,0,0,0,0,0,0,0,0,1228,1229,1230,1164,1165,1166,1167,
0,0,0,0,0,0,0,0,0,0,0,0,0,0,0,0,0,0,0,0,0,0,0,0,0,0,0,0,0,0,0,0,0,1292,1293,1294,1228,1229,1230,1231,
0,0,0,0,0,0,0,0,0,0,0,0,0,0,0,0,0,0,0,0,0,0,0,0,0,0,0,0,0,0,0,0,0,1356,1357,1358,1292,1293,1294,1295,
0,0,0,0,0,0,0,0,0,0,0,0,0,0,0,0,0,0,0,0,0,0,0,0,0,0,0,0,0,0,0,0,1164,1292,1293,1294,1356,1357,1358,1359,
0,0,0,0,0,0,0,0,0,0,0,0,0,0,0,0,0,0,0,0,0,0,0,0,0,0,0,0,0,0,0,1164,1228,1356,1357,1358,1359,0,0,0,
0,0,0,0,0,0,0,0,0,0,0,0,0,0,0,0,0,0,0,0,0,0,0,0,0,0,0,0,0,0,0,1228,1292,1293,1294,1295,0,0,0,0,
0,0,0,0,0,0,0,0,0,0,0,0,0,0,0,0,0,0,0,0,0,0,0,0,0,0,0,0,0,0,0,1292,1356,1357,1358,1359,0,0,0,0,
0,0,0,0,0,0,0,0,0,0,0,0,0,0,0,0,0,0,0,0,0,0,0,0,0,0,0,0,0,0,1164,1165,1166,1167,1358,1359,0,0,0,0,
0,0,0,0,0,0,0,0,0,0,0,0,0,0,0,0,0,0,0,0,0,0,0,0,0,0,0,0,0,0,1228,1229,1230,1231,1294,1295,0,0,0,0,
0,0,0,0,0,0,0,0,0,0,0,0,0,0,0,0,0,0,0,0,0,0,0,0,0,0,0,0,0,0,1292,1293,1294,1295,1358,1359,0,0,0,0,
0,0,0,0,0,0,0,0,0,0,0,0,0,0,0,0,0,0,0,0,0,0,0,0,0,0,0,0,0,0,1356,1357,1358,1359,1294,1295,0,0,0,0,
0,0,0,0,0,0,0,0,0,0,0,0,0,0,0,0,0,0,0,0,0,0,0,0,0,0,0,0,0,0,1164,1165,1356,1164,1165,1166,0,0,0,0,
0,0,0,0,0,0,0,0,0,0,0,0,0,0,0,0,0,0,0,0,0,0,0,0,0,0,0,0,0,0,1164,1165,1166,1167,1229,1230,0,0,0,0,
0,0,0,0,0,0,0,0,0,0,0,0,0,0,0,0,0,0,0,0,0,0,0,0,0,0,0,0,0,0,1228,1229,1230,1231,1293,1294,0,0,0,0,
0,0,0,0,0,0,0,0,0,0,0,0,0,0,0,0,0,0,0,0,0,0,0,0,0,0,0,0,0,0,1292,1293,1294,1295,1357,1358,1359,0,0,0,
0,0,0,0,0,0,0,0,0,0,0,0,0,0,0,0,0,0,0,0,0,0,0,0,0,0,0,0,0,0,1356,1357,1358,1359,1294,1295,1292,1293,1294,1295,
0,0,0,0,0,0,0,0,0,0,0,0,0,0,0,0,0,0,0,0,0,0,0,0,0,0,0,0,0,0,0,0,1356,1357,1358,1359,1356,1357,1358,1359,
0,0,0,0,0,0,0,0,1164,1165,1166,1167,1164,1165,1166,1167,1164,1165,1166,1167,0,0,0,0,0,0,0,0,0,0,0,0,1164,1165,1166,1167,1164,1165,1166,1167,
0,0,0,0,0,0,0,0,1228,1229,1230,1231,1228,1229,1230,1231,1228,1229,1230,1231,0,0,0,0,0,0,0,0,0,0,0,0,1228,1229,1230,1231,1228,1229,1230,1231,
0,0,0,0,0,0,0,0,1292,1293,1294,1295,1292,1293,1294,1295,1292,1293,1294,1295,0,0,0,0,0,0,136,137,138,0,0,0,1292,1293,1294,1295,1292,1293,1294,1295,
0,0,0,0,0,0,0,0,1356,1357,1358,1359,1356,1357,1358,1359,1356,1357,1358,1359,0,0,0,0,0,0,1164,1165,1166,0,0,0,1356,1357,1358,1359,1356,1357,1358,1359,
1164,1165,1166,1167,1164,1165,1166,1167,1164,1165,1166,1167,1164,1165,1166,1167,1164,1165,1164,1165,1166,1167,0,0,0,1164,1228,1229,1230,1164,1165,1166,1167,1165,1166,1167,1164,1165,1166,1167,
1164,1165,1166,1167,1228,1229,1230,1231,1228,1229,1230,1231,1228,1229,1230,1231,1228,1229,1228,1229,1230,1231,1164,1165,1166,1228,1229,1230,1231,1228,1229,1230,1231,1229,1230,1231,1228,1229,1230,1231,
1164,1165,1166,1167,1292,1293,1294,1295,1292,1293,1294,1295,1292,1293,1294,1295,1292,1293,1292,1293,1294,1295,1228,1229,1230,1292,1293,1294,1295,1292,1293,1294,1295,1293,1294,1295,1292,1293,1294,1295,
1164,1165,1166,1167,1356,1357,1358,1359,1356,1357,1358,1359,1356,1357,1358,1359,1356,1357,1356,1357,1358,1359,1292,1293,1294,1356,1357,1358,1359,1356,1357,1358,1359,1357,1358,1359,1356,1357,1358,1359,
1228,1229,1230,1231,1164,1165,1166,1167,1164,1165,1166,1167,1164,1165,1166,1167,1164,1165,1166,1167,1164,1165,1356,1357,1358,1359,1165,1166,1167,1167,1166,1167,1164,1165,1166,1167,1164,1165,1166,1167,
1292,1293,1294,1295,1228,1229,1230,1231,1228,1229,1230,1231,1228,1229,1230,1231,1228,1229,1230,1231,1228,1229,1230,1231,1228,1228,1229,1230,1231,1231,1230,1231,1228,1229,1230,1231,1228,1229,1230,1231,
1356,1357,1358,1359,1292,1293,1294,1295,1292,1293,1294,1295,1292,1293,1294,1295,1292,1293,1294,1295,1292,1293,1294,1295,1292,1292,1293,1294,1295,1295,1294,1295,1292,1293,1294,1295,1292,1293,1294,1295,
1356,1357,1358,1359,1356,1357,1358,1359,1356,1357,1358,1359,1356,1357,1358,1359,1356,1357,1358,1359,1356,1357,1358,1359,1356,1356,1357,1358,1359,1359,1358,1359,1356,1357,1358,1359,1356,1357,1358,1359
</data>
 </layer>
 <objectgroup id="7" name="collision">
  <object id="8" x="531.483" y="1.28688" width="106.168" height="75.9262"/>
  <object id="9" x="513.467" y="48.2582" width="77.2131" height="45.041"/>
  <object id="10" x="498.024" y="64.3442" width="73.3524" height="84.9344"/>
  <object id="11" x="483.869" y="113.246" width="16.0861" height="35.3893"/>
  <object id="12" x="481.938" y="193.676" width="87.5082" height="73.9959"/>
  <object id="13" x="579.098" y="225.848" width="11.582" height="41.1803"/>
  <object id="14" x="593.254" y="243.865" width="45.6844" height="25.7377"/>
  <object id="15" x="513.467" y="273.463" width="126.758" height="204.615"/>
  <object id="16" x="467.783" y="336.52" width="44.3975" height="141.557"/>
  <object id="17" x="420.168" y="320.434" width="42.4672" height="158.93"/>
  <object id="18" x="402.795" y="339.738" width="14.1557" height="136.41"/>
  <object id="19" x="354.537" y="353.893" width="45.6844" height="124.828"/>
  <object id="20" x="321.078" y="336.52" width="31.5287" height="140.27"/>
  <object id="21" x="252.229" y="288.906" width="65.6311" height="185.311"/>
  <object id="22" x="147.348" y="288.906" width="69.4918" height="186.598"/>
  <object id="23" x="218.77" y="368.049" width="28.3115" height="107.455"/>
  <object id="24" x="128.688" y="303.705" width="29.5984" height="173.729"/>
  <object id="25" x="81.0737" y="384.135" width="46.3279" height="93.9426"/>
  <object id="26" x="1.93033" y="354.537" width="78.5" height="123.541"/>
 </objectgroup>
 <layer id="1" name="grass" width="40" height="30">
  <data encoding="csv">
66,66,66,66,66,67,67,131,131,131,131,131,67,67,67,67,67,67,67,67,66,66,66,130,130,130,194,66,66,67,66,130,130,0,0,0,0,0,0,0,
66,67,67,66,67,67,131,195,195,195,195,195,131,131,67,131,131,131,131,131,130,130,130,194,194,66,67,66,67,67,130,194,194,0,0,0,0,0,0,0,
66,66,66,67,131,131,195,259,259,259,259,259,195,195,131,67,195,195,195,195,194,194,194,66,66,67,67,67,131,131,194,258,258,0,0,0,0,0,0,0,
130,66,67,67,195,195,259,195,195,195,258,259,259,259,195,131,67,66,67,66,67,67,67,67,67,131,131,131,195,195,258,262,268,0,0,0,0,0,0,0,
194,66,67,131,491,492,259,259,259,259,259,195,258,259,259,195,66,67,67,67,67,131,131,131,131,195,195,195,259,259,194,268,0,0,0,0,0,0,0,0,
66,67,131,195,555,491,492,130,66,258,259,66,67,67,67,67,67,131,131,131,131,195,195,195,195,259,259,259,258,258,258,0,0,0,0,0,0,66,67,67,
66,67,195,259,66,555,556,194,66,67,67,67,67,131,131,131,131,195,195,195,195,259,259,259,259,66,130,194,258,259,262,0,0,0,0,0,66,67,67,131,
66,67,259,130,66,491,492,258,66,66,66,66,67,195,195,195,195,259,259,259,259,67,195,66,66,130,194,258,259,259,268,0,0,0,0,0,66,67,131,195,
66,67,258,194,491,492,556,67,130,130,130,66,66,66,66,66,67,66,66,66,66,66,66,130,130,194,258,259,194,258,0,0,0,0,0,0,66,66,66,67,
66,67,258,258,555,491,492,66,194,194,194,130,130,130,130,66,66,67,130,130,130,130,130,194,194,258,259,66,67,258,0,0,0,0,0,0,130,130,66,67,
66,66,67,131,258,555,491,492,258,258,258,194,194,194,194,130,66,67,194,66,66,66,66,66,67,259,258,66,66,67,0,0,0,0,0,0,66,67,67,67,
130,66,66,66,66,66,555,556,66,130,130,258,258,258,258,194,66,66,66,130,130,130,130,66,67,258,66,67,67,67,0,0,0,0,0,0,66,66,67,67,
194,130,130,130,130,130,130,130,130,194,194,194,258,258,258,258,130,130,130,194,194,194,194,130,66,66,67,67,131,131,0,0,0,0,0,0,130,66,67,67,
258,194,194,194,194,194,194,194,194,66,66,66,66,66,66,66,66,66,66,66,66,66,66,67,67,67,67,131,195,195,0,0,0,0,0,0,262,130,131,131,
258,258,258,258,258,258,258,258,66,130,130,130,130,130,130,130,130,130,130,130,130,130,130,131,131,131,67,195,259,259,0,0,0,0,0,0,268,262,262,262,
194,194,194,194,130,66,258,259,130,194,194,194,194,194,194,194,194,194,194,194,194,194,194,195,195,195,131,259,259,194,0,0,0,0,0,0,0,268,268,268,
258,258,258,258,194,130,130,258,194,258,258,258,258,258,258,258,258,258,258,258,258,258,258,259,259,66,66,66,66,66,0,0,0,0,0,0,0,0,0,0,
66,66,66,66,258,194,194,258,258,262,262,262,262,262,262,262,262,262,262,262,66,67,66,66,66,130,130,130,130,130,130,131,0,0,0,0,0,0,0,0,
130,130,130,130,131,258,258,258,262,268,268,268,268,268,268,268,268,268,268,268,130,131,130,130,130,194,194,194,194,194,194,195,0,0,0,0,0,0,0,0,
194,194,194,194,195,66,66,67,268,0,0,0,0,0,0,0,0,0,0,0,194,195,194,194,194,258,262,262,262,67,258,259,0,0,0,0,0,0,0,0,
258,258,258,258,259,130,130,131,0,0,0,0,0,0,0,0,0,0,0,0,262,262,258,258,258,262,268,268,268,262,262,262,0,0,0,0,0,0,0,0,
262,262,262,262,262,194,194,195,0,0,0,0,0,0,0,0,0,0,0,0,268,268,262,262,262,268,0,0,0,268,268,268,0,0,0,0,0,0,0,0,
268,268,268,268,268,258,258,259,0,0,0,0,0,0,0,0,0,0,0,0,0,0,268,268,268,0,0,0,0,0,0,0,0,0,0,0,0,0,0,0,
0,0,0,0,0,262,262,262,0,0,0,0,0,0,0,0,0,0,0,0,0,0,0,0,0,0,0,0,0,0,0,0,0,0,0,0,0,0,0,0,
0,0,0,0,0,268,268,268,0,0,0,0,0,0,0,0,0,0,0,0,0,0,0,0,0,0,0,0,0,0,0,0,0,0,0,0,0,0,0,0,
0,0,0,0,0,0,0,0,0,0,0,0,0,0,0,0,0,0,0,0,0,0,0,0,0,0,0,0,0,0,0,0,0,0,0,0,0,0,0,0,
0,0,0,0,0,0,0,0,0,0,0,0,0,0,0,0,0,0,0,0,0,0,0,0,0,0,0,0,0,0,0,0,0,0,0,0,0,0,0,0,
0,0,0,0,0,0,0,0,0,0,0,0,0,0,0,0,0,0,0,0,0,0,0,0,0,0,0,0,0,0,0,0,0,0,0,0,0,0,0,0,
0,0,0,0,0,0,0,0,0,0,0,0,0,0,0,0,0,0,0,0,0,0,0,0,0,0,0,0,0,0,0,0,0,0,0,0,0,0,0,0,
0,0,0,0,0,0,0,0,0,0,0,0,0,0,0,0,0,0,0,0,0,0,0,0,0,0,0,0,0,0,0,0,0,0,0,0,0,0,0,0
</data>
 </layer>
 <layer id="3" name="walkable deco" width="40" height="30">
  <data encoding="csv">
0,0,0,0,0,0,0,0,0,0,0,0,0,0,0,0,0,0,0,2102,0,0,0,0,0,0,0,0,0,2102,0,0,0,0,0,0,0,0,0,0,
0,0,0,0,0,0,0,0,0,0,0,0,0,0,0,0,0,0,0,2102,0,0,0,0,0,0,0,0,0,2102,0,0,0,0,0,0,0,0,0,0,
0,0,0,0,0,0,0,0,0,0,0,0,0,0,0,0,0,0,0,2102,0,0,0,0,0,0,0,0,0,2102,0,0,0,0,0,0,0,0,0,0,
0,0,0,0,0,0,0,0,0,0,0,0,0,0,0,0,0,291,0,2102,0,0,0,0,0,0,0,0,0,2102,0,0,0,0,0,0,0,0,0,0,
0,0,0,0,0,0,0,0,0,0,0,0,0,1320,0,0,0,0,0,0,0,0,0,2281,2282,2283,0,0,0,0,0,0,0,0,0,0,0,0,0,0,
0,0,0,0,0,0,0,0,0,0,0,0,0,0,0,0,0,0,0,0,0,0,0,2345,2346,2347,0,0,0,0,0,0,0,0,0,0,0,0,0,0,
0,0,0,0,0,0,0,0,0,0,0,0,0,0,0,0,0,0,0,0,0,0,0,2409,2410,2411,0,0,0,0,0,0,0,0,0,0,0,0,1976,0,
0,0,0,0,0,0,0,0,0,0,0,0,0,1083,0,0,1083,0,0,0,0,0,0,0,0,0,0,0,0,0,0,0,0,0,0,0,0,0,0,0,
0,0,0,0,0,0,0,0,0,0,0,0,0,1147,1150,1150,1147,0,0,0,0,0,0,0,0,0,0,0,0,0,0,0,0,0,0,0,0,224,224,0,
0,0,0,0,0,0,0,0,0,0,0,0,0,1150,0,0,1150,0,0,0,0,0,0,0,0,0,0,0,0,0,0,0,0,0,0,0,0,0,0,224,
0,0,0,0,0,0,0,0,0,0,0,0,0,1150,0,0,1150,0,0,0,0,0,0,0,0,0,0,0,0,0,0,0,0,0,0,0,0,226,226,226,
0,0,0,0,0,0,0,0,0,0,0,0,0,1147,1150,1150,1147,0,0,0,0,0,0,0,0,0,0,0,0,0,0,0,0,0,0,0,0,0,226,0,
0,0,0,0,0,0,0,0,0,0,0,0,0,0,0,0,0,0,0,0,0,0,0,0,0,0,0,0,0,0,0,0,0,0,0,0,0,0,0,0,
0,0,0,0,0,0,0,0,0,0,0,0,0,0,0,0,0,0,0,0,0,0,0,0,0,0,0,0,0,0,0,0,0,0,0,0,224,0,0,0,
0,0,0,291,0,0,0,0,0,0,0,0,0,0,0,0,0,0,0,0,0,0,0,0,0,0,0,0,0,0,0,0,0,0,0,0,0,0,0,0,
0,0,0,0,0,0,0,0,0,0,0,0,0,0,0,0,0,0,0,224,0,0,0,0,0,0,0,0,0,0,0,0,0,0,0,0,0,0,0,0,
0,1976,0,0,0,0,0,0,0,0,0,0,2101,0,0,0,2101,0,0,0,0,0,0,224,0,0,0,0,0,0,0,0,0,0,0,0,0,0,0,0,
0,0,0,0,224,0,0,0,0,167,168,168,171,0,0,0,167,168,168,171,0,0,0,0,0,0,0,0,0,0,0,0,0,0,0,0,0,0,0,0,
0,0,0,0,0,0,0,0,0,0,0,0,0,0,0,0,0,0,0,0,0,0,291,0,0,0,0,0,0,0,0,0,0,0,0,0,0,0,0,0,
0,0,0,0,0,0,0,224,0,0,0,0,0,0,0,0,0,0,0,0,0,0,224,0,0,0,0,0,0,0,0,0,0,0,0,0,0,0,0,0,
0,0,94,0,0,0,0,0,0,0,0,0,0,0,0,0,0,0,0,0,0,0,0,0,0,0,136,137,138,0,0,0,0,0,0,0,0,0,0,0,
167,168,168,168,171,0,224,0,0,0,0,0,0,0,0,0,0,0,0,0,0,0,0,0,0,0,0,0,0,0,0,0,0,0,0,0,0,0,0,0,
0,0,0,0,0,0,0,0,0,0,0,0,0,0,0,0,0,0,0,0,0,0,0,0,0,0,0,0,0,0,0,0,0,0,0,0,0,0,0,0,
0,0,0,0,0,0,0,0,0,0,0,0,0,0,0,0,0,0,0,0,0,0,0,0,0,0,0,0,0,0,0,0,0,0,0,0,0,0,0,0,
0,0,0,0,0,0,0,0,0,0,0,0,0,0,0,0,0,0,0,0,0,0,0,0,0,0,0,0,0,0,0,0,0,0,0,0,0,0,0,0,
0,0,0,0,0,0,0,0,0,0,0,0,0,0,0,0,0,0,0,0,0,0,0,0,0,0,0,0,0,0,0,0,0,0,0,0,0,0,0,0,
0,0,0,0,0,0,0,0,0,0,0,0,0,0,0,0,0,0,0,0,0,0,0,0,0,0,0,0,0,0,0,0,0,0,0,0,0,0,0,0,
0,0,0,0,0,0,0,0,0,0,0,0,0,0,0,0,0,0,0,0,0,0,0,0,0,0,0,0,0,0,0,0,0,0,0,0,0,0,0,0,
0,0,0,0,0,0,0,0,0,0,0,0,0,0,0,0,0,0,0,0,0,0,0,0,0,0,0,0,0,0,0,0,0,0,0,0,0,0,0,0,
0,0,0,0,0,0,0,0,0,0,0,0,0,0,0,0,0,0,0,0,0,0,0,0,0,0,0,0,0,0,0,0,0,0,0,0,0,0,0,0
</data>
 </layer>
 <layer id="2" name="collision deco" width="40" height="30">
  <data encoding="csv">
2100,725,726,727,729,729,729,731,732,733,2100,436,437,436,437,436,437,436,437,0,2773,2774,2775,2776,2776,2778,2779,2780,2781,0,0,0,0,0,0,0,0,0,0,0,
2100,789,790,791,792,793,792,795,796,797,2100,500,501,500,501,500,501,500,501,0,2837,2838,2839,2840,2841,2840,2843,2844,2845,0,0,0,0,0,0,0,0,0,0,0,
2100,848,792,913,792,792,792,913,792,850,2100,564,565,564,565,564,565,564,565,0,2896,2840,2911,2840,2840,2840,2911,2840,2898,0,0,0,0,0,0,0,0,0,0,0,
2100,912,792,792,792,846,792,792,792,914,2100,0,0,0,2147484906,2147484905,0,0,0,0,2960,2840,2840,2840,846,2840,2840,2840,2962,0,0,0,0,0,0,0,0,0,0,0,
0,0,0,0,0,0,0,0,0,0,0,0,0,0,2147484970,2147484969,0,0,0,0,0,0,0,0,0,0,0,0,0,0,0,0,0,0,0,0,0,0,0,0,
0,0,0,0,0,0,0,0,308,0,0,0,0,0,2147485034,2147485033,0,0,0,0,0,0,0,0,0,0,0,0,0,0,0,0,0,0,0,0,0,0,0,0,
0,0,0,0,0,0,0,0,0,308,0,0,0,0,0,0,0,0,0,0,0,0,0,0,0,0,0,0,0,0,0,0,0,0,0,0,0,1910,1911,0,
0,0,308,0,0,0,0,0,0,308,0,0,0,0,1197,1198,0,0,0,0,0,0,0,0,0,0,0,0,0,0,0,0,0,0,0,0,0,1974,1975,0,
0,0,308,0,0,0,0,0,0,0,0,0,0,0,1261,1262,0,0,0,0,0,0,0,0,0,0,0,0,0,0,0,0,0,0,0,0,0,0,0,0,
0,0,0,0,0,0,0,0,308,0,0,0,0,0,1325,1326,0,0,0,0,0,0,0,0,0,0,0,0,0,0,0,0,0,0,0,0,0,0,0,0,
0,0,0,308,0,0,0,0,0,0,0,0,0,0,1389,1390,0,0,0,0,0,0,0,0,0,0,0,0,0,0,0,0,0,0,0,0,0,0,0,0,
0,0,0,0,0,0,0,0,0,0,0,0,0,0,0,0,0,0,0,0,0,0,0,0,0,0,0,0,0,0,0,0,0,0,0,0,0,0,0,0,
0,0,0,0,0,0,0,0,0,0,0,0,0,0,0,0,0,0,0,0,0,0,0,0,0,0,0,0,0,0,0,0,0,0,0,0,0,0,0,0,
0,0,0,0,0,0,0,0,0,0,0,0,0,0,0,0,0,0,0,0,0,0,0,0,0,0,0,0,0,0,0,0,0,0,0,0,0,0,0,0,
0,0,0,0,0,0,0,0,0,0,0,0,0,0,0,0,0,0,0,0,0,0,0,0,0,0,0,0,0,0,0,0,0,0,0,0,0,0,0,0,
0,0,0,0,0,0,0,0,0,0,0,0,0,0,0,0,0,0,0,0,0,0,0,0,0,0,0,0,0,0,0,0,0,0,0,0,0,0,0,0,
0,1910,1911,0,0,0,0,0,0,0,0,0,0,0,0,0,0,0,0,0,0,0,0,0,0,0,0,0,0,0,0,0,0,0,0,0,0,0,0,0,
1976,1974,1975,0,0,0,0,0,1063,0,0,0,0,360,361,362,0,0,0,0,0,0,0,0,0,0,0,0,0,0,0,0,0,0,0,0,0,0,0,0,
436,437,353,0,0,0,0,0,0,0,0,0,0,424,425,426,0,0,0,0,0,0,0,0,0,0,0,0,0,0,1910,1911,0,0,0,0,0,0,0,0,
500,501,0,0,0,0,0,0,0,0,0,0,0,360,361,362,0,0,0,0,0,0,0,0,0,0,0,0,0,0,1974,1975,0,0,0,0,0,0,0,0,
564,565,0,0,0,0,0,0,0,0,0,0,0,424,425,426,0,0,0,0,0,0,0,0,0,0,0,0,0,0,0,0,0,0,0,0,0,0,0,0,
0,0,0,0,0,0,0,0,0,0,0,0,0,360,361,362,0,0,0,0,0,0,0,0,0,0,0,0,0,0,0,0,0,0,0,0,0,0,0,0,
0,0,0,0,0,0,0,0,0,0,0,0,0,424,425,426,0,0,0,0,0,0,0,0,0,0,0,0,0,0,0,0,0,0,0,0,0,0,0,0,
0,0,0,0,0,0,0,0,0,0,0,0,0,0,0,0,0,0,0,0,0,0,0,0,0,0,0,0,0,0,0,0,0,0,0,0,0,0,0,0,
0,0,0,0,0,0,0,0,0,0,0,0,0,0,0,0,0,0,0,0,0,0,0,0,0,0,0,0,0,0,0,0,0,0,0,0,0,0,0,0,
0,0,0,0,0,0,0,0,0,0,0,0,0,0,0,0,0,0,0,0,0,0,0,0,0,0,0,0,0,0,0,0,0,0,0,0,0,0,0,0,
0,0,0,0,0,0,0,0,0,0,0,0,0,0,0,0,0,0,0,0,0,0,0,0,0,0,0,0,0,0,0,0,0,0,0,0,0,0,0,0,
0,0,0,0,0,0,0,0,0,0,0,0,0,0,0,0,0,0,0,0,0,0,0,0,0,0,0,0,0,0,0,0,0,0,0,0,0,0,0,0,
0,0,0,0,0,0,0,0,0,0,0,0,0,0,0,0,0,0,0,0,0,0,0,0,0,0,0,0,0,0,0,0,0,0,0,0,0,0,0,0,
0,0,0,0,0,0,0,0,0,0,0,0,0,0,0,0,0,0,0,0,0,0,0,0,0,0,0,0,0,0,0,0,0,0,0,0,0,0,0,0
</data>
 </layer>
 <layer id="4" name="bridge to island" width="40" height="30">
  <data encoding="csv">
0,0,0,0,0,0,0,0,0,0,0,0,0,0,0,0,0,0,0,0,0,0,0,0,0,0,0,0,0,0,0,0,0,0,0,0,0,0,0,0,
0,0,0,0,0,0,0,0,0,0,0,0,0,0,0,0,0,0,0,0,0,0,0,0,0,0,0,0,0,0,0,0,0,0,0,0,0,0,0,0,
0,0,0,0,0,2167,0,0,0,0,0,0,0,0,0,0,0,0,0,0,0,0,0,0,2166,0,0,0,0,0,0,0,0,0,0,0,0,0,0,0,
0,0,0,0,0,0,0,0,0,0,0,0,0,0,0,0,0,0,0,0,0,0,3039,0,0,0,3039,0,0,0,0,0,0,0,0,0,0,0,0,0,
0,0,0,0,0,0,0,0,0,0,0,0,0,0,0,0,0,0,0,0,0,0,0,0,0,0,0,0,0,0,0,0,0,0,0,0,0,0,0,0,
0,0,0,0,0,0,0,0,0,0,0,0,0,0,0,0,0,0,0,0,0,0,0,0,0,0,0,0,0,0,0,0,0,0,0,0,0,0,0,0,
0,0,0,0,0,0,0,0,0,0,0,0,0,0,0,0,0,0,0,0,0,0,0,0,0,0,0,0,0,0,0,0,0,0,0,0,0,0,0,0,
0,0,0,0,0,0,0,0,0,0,0,0,0,0,0,0,0,0,0,0,0,0,0,0,0,0,0,0,0,0,0,0,0,0,0,0,0,0,0,0,
0,0,0,0,0,0,0,0,0,0,0,0,0,0,0,0,0,0,0,0,0,0,0,0,0,0,0,0,0,0,0,0,0,0,0,0,0,0,0,0,
0,0,0,0,0,0,0,0,0,0,0,0,0,0,0,0,0,0,0,0,0,0,0,0,0,0,0,0,0,1610613098,1610613162,1610613098,1610613162,1610613098,1610613162,1610613098,1610613162,0,0,0,
0,0,0,0,0,0,0,0,0,0,0,0,0,0,0,0,0,0,0,0,0,0,0,0,0,0,0,358,359,1610613097,1610613161,1610613097,1610613161,1610613097,1610613161,1610613097,1610613161,0,0,0,
0,0,0,0,0,0,0,0,0,0,0,0,0,0,0,0,0,0,0,0,0,0,0,0,0,0,0,0,0,1610613096,1610613160,1610613096,1610613160,1610613096,1610613160,1610613096,1610613160,0,0,0,
0,0,0,0,0,0,0,0,0,0,0,0,0,0,0,0,0,0,0,0,0,0,0,0,0,0,0,0,0,0,0,0,0,0,0,0,0,0,0,0,
0,0,0,0,0,0,0,0,0,0,0,0,0,0,0,0,0,0,0,0,0,0,0,0,0,0,0,0,0,0,0,0,0,0,0,0,0,0,0,0,
0,0,0,0,0,0,0,0,0,0,0,0,0,0,0,0,0,0,0,0,0,0,0,0,0,0,0,0,0,0,0,0,0,0,0,0,0,0,0,0,
0,0,0,0,0,0,0,0,0,0,0,0,0,0,0,0,0,0,0,0,0,0,0,0,0,0,0,0,0,0,0,0,0,0,0,0,0,0,0,0,
0,0,0,0,0,0,0,0,0,0,0,0,0,0,0,0,0,0,0,0,0,0,0,0,0,0,0,0,0,0,0,0,0,0,0,0,0,0,0,0,
0,0,0,0,0,0,0,0,0,0,0,0,0,0,0,0,0,0,0,0,0,0,0,0,0,0,0,0,0,0,0,0,0,0,0,0,0,0,0,0,
0,0,0,0,0,0,0,0,0,0,0,0,0,0,0,0,0,0,0,0,0,0,0,0,0,0,0,0,0,0,0,0,0,0,0,0,0,0,0,0,
0,0,0,0,0,0,0,0,0,0,0,0,0,0,0,0,0,0,0,0,0,0,0,0,0,0,0,0,0,0,0,0,0,0,0,0,0,0,0,0,
0,0,0,0,0,0,0,0,0,0,0,0,0,0,0,0,0,0,0,0,0,0,0,0,0,0,1420,1277,1423,0,0,0,0,0,0,0,0,0,0,0,
0,0,0,0,0,0,0,0,0,0,0,0,0,0,0,0,0,0,0,0,0,0,0,0,0,0,1422,1423,0,0,0,0,0,0,0,0,0,0,0,0,
0,0,0,0,0,0,0,0,0,0,0,0,0,0,0,0,0,0,0,0,0,0,0,0,0,0,0,1422,0,0,0,0,0,0,0,0,0,0,0,0,
0,0,0,0,0,0,0,0,0,0,0,0,0,0,0,0,0,0,0,0,0,0,0,0,0,0,0,0,0,0,0,0,0,0,0,0,0,0,0,0,
0,0,0,0,0,0,0,0,0,0,0,0,0,0,0,0,0,0,0,0,0,0,0,0,0,0,0,0,0,0,0,0,0,0,0,0,0,0,0,0,
0,0,0,0,0,0,0,0,0,0,0,0,0,0,0,0,0,0,0,0,0,0,0,0,0,0,0,0,0,0,0,0,0,0,0,0,0,0,0,0,
0,0,0,0,0,0,0,0,0,0,0,0,0,0,0,0,0,0,0,0,0,0,0,0,0,0,0,0,0,0,0,0,0,0,0,0,0,0,0,0,
0,0,0,0,0,0,0,0,0,0,0,0,0,0,0,0,0,0,0,0,0,0,0,0,0,0,0,0,0,0,0,0,0,0,0,0,0,0,0,0,
0,0,0,0,0,0,0,0,0,0,0,0,0,0,0,0,0,0,0,0,0,0,0,0,0,0,0,0,0,0,0,0,0,0,0,0,0,0,0,0,
0,0,0,0,0,0,0,0,0,0,0,0,0,0,0,0,0,0,0,0,0,0,0,0,0,0,0,0,0,0,0,0,0,0,0,0,0,0,0,0
</data>
 </layer>
 <layer id="5" name="decorations" width="40" height="30">
  <data encoding="csv">
0,0,0,0,0,0,0,0,0,0,0,0,0,0,0,0,0,0,0,0,0,0,0,0,0,0,0,0,0,0,0,0,0,0,0,0,0,0,0,0,
0,0,0,0,0,0,0,0,0,0,0,0,0,0,0,0,0,0,0,0,0,0,0,0,0,0,0,0,0,0,0,0,0,0,0,0,0,0,0,0,
0,0,0,0,0,0,0,0,0,0,0,0,0,0,0,0,0,0,0,0,0,0,0,0,0,0,0,0,0,0,0,0,0,0,0,0,0,0,0,0,
0,0,370,371,0,0,0,0,0,0,0,0,0,0,0,0,0,0,0,0,0,0,0,0,0,0,242,243,0,0,0,0,0,0,0,0,0,0,0,0,
0,0,434,435,0,0,0,0,0,0,0,0,0,0,0,0,0,0,0,0,0,0,0,0,0,0,306,307,0,0,0,0,0,0,0,0,0,0,0,0,
0,0,0,0,0,0,0,0,0,0,0,0,0,0,0,0,0,0,0,0,0,0,0,0,0,0,241,0,177,0,0,0,0,0,0,0,0,0,0,0,
0,0,0,0,0,0,0,0,0,0,0,0,0,0,0,0,0,0,0,0,0,0,0,0,0,0,0,0,0,0,0,0,0,0,0,0,0,0,0,0,
0,0,0,0,0,0,0,0,0,0,0,0,0,0,0,0,0,0,0,0,0,0,0,0,0,0,0,0,0,0,0,0,0,0,0,0,0,0,0,0,
0,0,0,0,0,0,0,0,0,0,0,0,0,0,0,0,0,0,0,0,0,0,0,0,0,0,0,0,0,0,0,0,0,0,0,0,0,0,0,0,
0,0,0,0,0,0,0,0,0,0,0,0,0,0,0,0,0,0,0,0,0,0,0,0,0,0,0,0,0,0,0,0,0,0,0,0,0,0,0,0,
0,0,0,0,0,0,0,0,0,0,0,0,0,0,0,0,0,0,0,0,0,0,0,0,0,0,0,0,0,0,0,0,0,0,0,0,0,0,0,0,
0,0,0,0,0,0,0,0,0,0,0,0,0,0,0,0,0,0,0,0,0,0,0,0,0,0,0,0,0,0,0,0,0,0,0,0,0,0,0,0,
0,0,0,0,0,0,0,0,0,0,0,0,0,0,0,0,0,0,0,0,0,0,0,0,0,0,0,0,0,0,0,0,0,0,0,0,0,0,0,0,
0,0,0,0,0,0,0,0,0,0,0,0,0,0,0,0,0,0,0,0,0,0,0,0,0,0,0,0,0,0,0,0,0,0,0,0,0,0,0,0,
0,0,0,0,0,0,0,0,0,0,0,0,0,0,0,0,0,0,0,0,0,0,0,0,0,0,0,0,0,0,0,0,0,0,0,0,0,0,0,0,
0,0,0,0,0,0,0,0,0,0,0,0,0,0,0,0,0,0,0,0,0,0,0,0,0,0,0,0,0,0,0,0,0,0,0,0,0,0,0,0,
0,0,0,0,0,0,0,0,0,0,0,0,0,0,0,0,0,0,0,0,0,0,0,0,0,0,0,0,0,0,0,0,0,0,0,0,0,0,0,0,
0,0,0,0,0,0,0,0,0,0,0,0,0,0,0,0,0,0,0,0,0,0,0,0,0,0,0,0,0,0,0,0,0,0,0,0,0,0,0,0,
0,0,0,0,0,0,0,0,0,0,0,0,0,0,0,0,0,0,0,0,0,0,0,0,0,0,0,0,0,0,0,0,0,0,0,0,0,0,0,0,
0,0,0,0,0,0,0,0,0,0,0,0,0,0,0,0,0,0,0,0,0,0,0,0,0,0,0,0,0,0,0,0,0,0,0,0,0,0,0,0,
0,0,0,0,0,0,0,0,0,0,0,0,0,0,0,0,0,0,0,0,0,0,0,0,0,0,0,0,0,0,0,0,0,0,0,0,0,0,0,0,
0,0,0,0,0,0,0,0,0,0,0,0,0,0,0,0,0,0,0,0,0,0,0,0,0,0,0,0,0,0,0,0,0,0,0,0,0,0,0,0,
0,0,0,0,0,0,0,0,0,0,0,0,0,0,0,0,0,0,0,0,0,0,0,0,0,0,0,0,0,0,0,0,0,0,0,0,0,0,0,0,
0,0,0,0,0,0,0,0,0,0,0,0,0,0,0,0,0,0,0,0,0,0,0,0,0,0,0,0,0,0,0,0,0,0,0,0,0,0,0,0,
0,0,0,0,0,0,0,0,0,0,0,0,0,0,0,0,0,0,0,0,0,0,0,0,0,0,0,0,0,0,0,0,0,0,0,0,0,0,0,0,
0,0,0,0,0,0,0,0,0,0,0,0,0,0,0,0,0,0,0,0,0,0,0,0,0,0,0,0,0,0,0,0,0,0,0,0,0,0,0,0,
0,0,0,0,0,0,0,0,0,0,0,0,0,0,0,0,0,0,0,0,0,0,0,0,0,0,0,0,0,0,0,0,0,0,0,0,0,0,0,0,
0,0,0,0,0,0,0,0,0,0,0,0,0,0,0,0,0,0,0,0,0,0,0,0,0,0,0,0,0,0,0,0,0,0,0,0,0,0,0,0,
0,0,0,0,0,0,0,0,0,0,0,0,0,0,0,0,0,0,0,0,0,0,0,0,0,0,0,0,0,0,0,0,0,0,0,0,0,0,0,0,
0,0,0,0,0,0,0,0,0,0,0,0,0,0,0,0,0,0,0,0,0,0,0,0,0,0,0,0,0,0,0,0,0,0,0,0,0,0,0,0
</data>
 </layer>
</map>
