<?xml version="1.0" encoding="UTF-8"?>
<map version="1.10" tiledversion="1.11.2" orientation="orthogonal" renderorder="right-down" width="30" height="30" tilewidth="16" tileheight="16" infinite="0" nextlayerid="7" nextobjectid="1">
 <tileset firstgid="1" name="Hooked_MBackground" tilewidth="16" tileheight="16" tilecount="6400" columns="80">
  <image source="output_tileset.png" width="1280" height="1280"/>
 </tileset>
 <layer id="1" name="Grass/Water" width="30" height="30">
  <data encoding="csv">
1855,1855,1855,1855,1855,1855,1855,1855,1856,1855,1855,1935,1935,1935,1935,1935,1935,1935,1935,1855,1855,1855,1855,1855,1855,1855,1855,1855,1855,1856,
1935,1935,1935,1935,1935,1935,1935,1855,1855,1935,1935,2015,2015,2015,2015,2015,2015,2015,2015,1935,1935,1935,1935,1935,1935,1935,1935,1935,1855,1856,
1856,1857,1858,1858,1858,1858,1858,1858,1935,2015,2015,2095,2095,2095,2095,1855,1856,1857,1858,1858,1858,1858,1858,1858,1858,1858,1858,1858,1858,1858,
1857,1858,1858,1938,1938,1938,1938,1938,2015,2095,1855,1856,1857,1858,1858,1858,1858,1858,1858,1938,1938,1938,1938,1938,1938,1938,1938,1938,1938,1938,
1857,1858,1938,2018,2018,2018,2018,2018,2095,1855,1856,1857,1858,1858,1938,1938,1938,1938,1938,2018,2018,2018,2018,2018,2018,2018,2018,2018,2018,2018,
1855,1856,1857,1858,2098,2098,2098,2098,1855,1856,1857,1858,1858,1938,2018,2018,2018,2018,2018,2098,2098,2098,2098,2098,2098,2098,2098,2098,2098,2098,
1855,1855,1856,1857,1858,2096,2097,2098,1856,1857,1858,1858,1938,2018,2098,2098,2098,2098,2098,323,323,323,243,244,323,403,404,243,244,324,
1855,1856,1857,1858,1858,2096,2097,2098,1856,1857,1858,1938,2018,2098,244,244,244,244,244,244,244,244,244,244,403,403,243,244,243,243,
1855,1856,1857,1858,1938,2096,2097,2098,1857,1858,1858,2018,2098,323,243,243,243,244,324,324,324,324,324,243,243,244,244,243,323,243,
1855,1856,1857,1858,2018,2097,2098,1856,1857,1858,1938,2098,324,244,323,323,323,243,243,243,244,404,404,243,244,324,324,323,403,243,
1856,1857,1858,1938,2098,2097,2098,1856,1857,1858,2018,243,244,244,244,244,244,323,323,243,244,243,244,243,243,243,244,403,403,243,
1856,1857,1858,2018,2096,2097,2098,1856,1857,1858,2098,244,324,324,324,324,244,244,244,244,243,243,243,323,323,243,243,403,404,243,
1856,1857,1858,2098,2096,2097,2098,1856,1857,1858,324,324,404,404,404,404,324,324,243,243,323,323,323,403,403,323,323,403,404,243,
1857,1858,1938,2096,2097,2098,1855,1856,1857,1858,404,404,404,243,243,403,404,243,323,323,403,403,403,243,244,244,403,403,243,244,
1857,1858,2018,2096,2097,2098,1855,1856,1857,1858,404,243,243,323,323,403,243,323,403,403,404,243,243,244,244,324,244,244,244,244,
1857,1858,2098,1858,2097,2098,1855,1856,1857,1858,243,323,323,403,243,243,323,403,243,244,244,244,243,244,324,404,324,324,243,244,
1858,1858,2098,1938,2097,2098,1855,1856,1857,1858,323,243,243,243,323,323,243,244,244,324,324,243,244,324,404,404,404,243,244,244,
1857,1858,2098,2018,2097,2098,1855,1855,1856,1857,1858,323,323,323,403,243,244,324,324,404,243,244,324,404,403,404,244,243,244,324,
1857,1858,2098,2098,2097,2098,1935,1855,1856,1857,1858,403,403,243,243,243,243,243,243,243,243,244,404,243,403,404,243,243,244,404,
1857,1858,2097,2098,1858,2098,2015,1855,1856,1857,1858,243,243,243,243,244,244,244,244,243,244,324,323,323,243,244,243,323,324,404,
1857,1858,2097,2098,1858,2098,1858,1855,1855,1856,1857,1858,323,323,323,324,324,244,244,244,244,244,244,244,244,244,243,403,404,403,
1856,1857,1858,2098,1938,2098,1938,1858,1858,1855,1855,1856,1857,1858,403,404,404,324,324,324,324,324,324,324,324,244,244,244,244,244,
1855,1856,1857,1858,2018,2098,2018,1938,1938,1858,1855,1855,1855,1855,1855,403,404,404,404,404,404,404,404,404,404,324,324,324,324,324,
1855,1855,1856,1857,1858,2098,2098,2018,2018,1938,1858,1935,1935,1935,1935,1935,1935,1935,1935,1935,1935,1855,1855,403,404,404,404,404,404,404,
1935,1855,1855,1856,1857,1858,2098,2098,2098,2018,1938,1858,2015,2015,2015,2015,2015,2015,2015,2015,2015,1935,1935,1935,1935,1935,1855,1855,1856,1857,
2015,1935,1935,1855,1855,1855,1855,1855,1856,1857,1858,1938,1858,1858,1858,1858,1858,1858,1858,1858,2095,2015,2015,2015,2015,2015,1935,1855,1856,1857,
2095,2015,2015,1935,1935,1855,1856,1857,1858,1858,1858,1858,1858,1858,1858,1858,1858,1938,1938,1938,1858,1858,1858,1858,2095,2095,1855,1856,1857,1858,
1855,1855,1856,1857,1858,1858,1858,1858,1858,1938,1938,1938,1938,1938,1938,1938,1858,1858,1858,2018,1938,1938,1938,1938,1858,1858,1858,1858,1858,1858,
1855,1935,1936,1937,1938,1938,1938,1938,1938,2018,2018,2018,2018,2018,2018,2018,1938,1938,1938,2098,2018,2018,2018,2018,1938,1938,1938,1938,1938,1938,
1855,2015,2016,2017,2018,2018,2018,2018,2018,2098,2098,2098,2098,2098,2098,2098,2018,2018,2018,2097,2098,2098,2098,2098,2018,2018,2018,2018,2018,2018
</data>
 </layer>
 <layer id="5" name="Bridge Supports" width="30" height="30">
  <data encoding="csv">
0,0,0,0,0,0,0,0,0,0,0,0,0,0,0,0,0,0,0,0,0,0,0,0,0,0,0,0,0,0,
0,0,0,0,0,0,0,0,0,0,0,0,0,0,0,0,0,0,0,0,0,0,0,0,0,0,0,0,0,0,
0,0,0,0,0,0,0,0,0,0,0,0,0,0,0,0,0,0,0,0,0,0,0,0,0,0,0,0,0,0,
0,0,0,0,0,0,0,0,0,0,0,0,0,0,0,0,0,0,0,0,0,0,0,0,0,0,0,0,0,0,
0,0,0,0,0,0,0,0,0,0,0,0,0,0,0,0,0,0,0,0,0,0,0,0,0,0,0,0,0,0,
0,0,0,0,0,0,0,0,0,0,0,0,0,0,0,0,0,0,0,0,0,0,0,0,0,0,0,0,0,0,
0,0,0,0,0,0,0,0,0,0,0,0,0,0,0,0,0,0,0,0,0,0,0,0,0,0,0,0,0,0,
0,0,0,0,0,0,0,0,0,0,0,0,0,0,0,0,0,0,0,0,0,0,0,0,0,0,0,0,0,0,
0,0,0,0,0,0,0,0,0,0,0,0,0,0,0,0,0,0,0,0,0,0,0,0,0,0,0,0,0,0,
0,0,0,0,0,0,0,0,0,0,0,0,0,0,0,0,0,0,0,0,0,0,0,0,0,0,0,0,0,0,
0,0,0,0,0,0,0,0,0,0,0,0,0,0,0,0,0,0,0,0,0,0,0,0,0,0,0,0,0,0,
0,0,0,0,0,0,0,0,0,0,0,0,0,0,0,0,0,0,0,0,0,0,0,0,0,0,0,0,0,0,
0,0,0,0,0,0,0,0,0,0,0,0,0,0,0,0,0,0,0,0,0,0,0,0,0,0,0,0,0,0,
0,0,0,0,0,0,0,0,0,0,0,0,0,0,0,0,0,0,0,0,0,0,0,0,0,0,0,0,0,0,
0,0,0,0,0,0,0,0,0,0,0,0,0,0,0,0,0,0,0,0,0,0,0,0,0,0,0,0,0,0,
0,0,0,0,0,0,0,0,0,0,0,0,0,0,0,0,0,0,0,0,0,0,0,0,0,0,0,0,0,0,
0,0,0,0,0,0,127,127,127,127,127,0,0,0,0,0,0,0,0,0,0,0,0,0,0,0,0,0,0,0,
0,0,0,0,0,0,207,207,207,207,207,0,0,0,0,0,0,0,0,0,0,0,0,0,0,0,0,0,0,0,
0,0,0,0,0,0,0,0,0,0,0,0,0,0,0,0,0,0,0,0,0,0,0,0,0,0,0,0,0,0,
0,0,0,0,0,0,0,0,0,0,0,0,0,0,0,0,0,0,0,0,0,0,0,0,0,0,0,0,0,0,
0,0,0,0,0,0,0,0,0,0,0,0,0,0,0,0,0,0,0,0,0,0,0,0,0,0,0,0,0,0,
0,0,0,0,0,0,0,0,0,0,0,0,0,0,0,0,0,0,0,0,0,0,0,0,0,0,0,0,0,0,
0,0,0,0,0,0,0,0,0,0,0,0,0,0,0,0,0,0,0,0,0,0,0,0,0,0,0,0,0,0,
0,0,0,0,0,0,0,0,0,0,0,0,0,0,0,0,0,0,0,0,0,0,0,0,0,0,0,0,0,0,
0,0,0,0,0,0,0,0,0,0,0,0,0,0,0,0,0,0,0,0,0,0,0,0,0,0,0,0,0,0,
0,0,0,0,0,0,0,0,0,0,0,0,0,0,0,0,0,0,0,0,0,0,0,0,0,0,0,0,0,0,
0,0,0,0,0,0,0,0,0,0,0,0,0,0,0,0,0,0,0,0,0,0,0,0,0,0,0,0,0,0,
0,0,0,0,0,0,0,0,0,0,0,0,0,0,0,0,0,0,0,0,0,0,0,0,0,0,0,0,0,0,
0,0,0,0,0,0,0,0,0,0,0,0,0,0,0,0,0,0,0,0,0,0,0,0,0,0,0,0,0,0,
0,0,0,0,0,0,0,0,0,0,0,0,0,0,0,0,0,0,0,0,0,0,0,0,0,0,0,0,0,0
</data>
 </layer>
 <layer id="6" name="Bridge" width="30" height="30">
  <data encoding="csv">
0,0,0,0,0,0,0,0,0,0,0,0,0,0,0,0,0,0,0,0,0,0,0,0,0,0,0,0,0,0,
0,0,0,0,0,0,0,0,0,0,0,0,0,0,0,0,0,0,0,0,0,0,0,0,0,0,0,0,0,0,
0,0,0,0,0,0,0,0,0,0,0,0,0,0,0,0,0,0,0,0,0,0,0,0,0,0,0,0,0,0,
0,0,0,0,0,0,0,0,0,0,0,0,0,0,0,0,0,0,0,0,0,0,0,0,0,0,0,0,0,0,
0,0,0,0,0,0,0,0,0,0,0,0,0,0,0,0,0,0,0,0,0,0,0,0,0,0,0,0,0,0,
0,0,0,0,0,0,0,0,0,0,0,0,0,0,0,0,0,0,0,0,0,0,0,0,0,0,0,0,0,0,
0,0,0,0,0,0,0,0,0,0,0,0,0,0,0,0,0,0,0,0,0,0,0,0,0,0,0,0,0,0,
0,0,0,0,0,0,0,0,0,0,0,0,0,0,0,0,0,0,0,0,0,0,0,0,0,0,0,0,0,0,
0,0,0,0,0,0,0,0,0,0,0,0,0,0,0,0,0,0,0,0,0,0,0,0,0,0,0,0,0,0,
0,0,0,0,0,0,0,0,0,0,0,0,0,0,0,0,0,0,0,0,0,0,0,0,0,0,0,0,0,0,
0,0,0,0,0,0,0,0,0,0,0,0,0,0,0,0,0,0,0,0,0,0,0,0,0,0,0,0,0,0,
0,0,0,0,0,0,0,0,0,0,0,0,0,0,0,0,0,0,0,0,0,0,0,0,0,0,0,0,0,0,
0,0,0,0,0,0,0,0,0,0,0,0,0,0,0,0,0,0,0,0,0,0,0,0,0,0,0,0,0,0,
0,0,0,0,0,0,0,0,0,0,0,0,0,0,0,0,0,0,0,0,0,0,0,0,0,0,0,0,0,0,
0,0,0,0,0,0,1170,1171,1171,1171,1171,1171,1171,1171,1171,1171,1171,1172,0,0,0,0,0,0,0,0,0,0,0,0,
0,0,0,0,0,0,1250,1251,1251,1251,1251,1251,1251,1251,1251,1251,1251,1252,0,0,0,0,0,0,0,0,0,0,0,0,
0,0,0,0,0,0,1330,1331,1331,1331,1331,1331,1331,1331,1331,1331,1331,1332,0,0,0,0,0,0,0,0,0,0,0,0,
0,0,0,0,0,0,0,0,0,0,0,0,0,0,0,0,0,0,0,0,0,0,0,0,0,0,0,0,0,0,
0,0,0,0,0,0,0,0,0,0,0,0,0,0,0,0,0,0,0,0,0,0,0,0,0,0,0,0,0,0,
0,0,0,0,0,0,0,0,0,0,0,0,0,0,0,0,0,0,0,0,0,0,0,0,0,0,0,0,0,0,
0,0,0,0,0,0,0,0,0,0,0,0,0,0,0,0,0,0,0,0,0,0,0,0,0,0,0,0,0,0,
0,0,0,0,0,0,0,0,0,0,0,0,0,0,0,0,0,0,0,0,0,0,0,0,0,0,0,0,0,0,
0,0,0,0,0,0,0,0,0,0,0,0,0,0,0,0,0,0,0,0,0,0,0,0,0,0,0,0,0,0,
0,0,0,0,0,0,0,0,0,0,0,0,0,0,0,0,0,0,0,0,0,0,0,0,0,0,0,0,0,0,
0,0,0,0,0,0,0,0,0,0,0,0,0,0,0,0,0,0,0,0,0,0,0,0,0,0,0,0,0,0,
0,0,0,0,0,0,0,0,0,0,0,0,0,0,0,0,0,0,0,0,0,0,0,0,0,0,0,0,0,0,
0,0,0,0,0,0,0,0,0,0,0,0,0,0,0,0,0,0,0,0,0,0,0,0,0,0,0,0,0,0,
0,0,0,0,0,0,0,0,0,0,0,0,0,0,0,0,0,0,0,0,0,0,0,0,0,0,0,0,0,0,
0,0,0,0,0,0,0,0,0,0,0,0,0,0,0,0,0,0,0,0,0,0,0,0,0,0,0,0,0,0,
0,0,0,0,0,0,0,0,0,0,0,0,0,0,0,0,0,0,0,0,0,0,0,0,0,0,0,0,0,0
</data>
 </layer>
</map>
